!!!!SEGMENT: pl-sa--197-a-vi-1--006_anonim--requiem-es-osanna.krn
!!!cenid: 17xx:1677
!!!COM: Anonim
!!!COM-rismid: pe30004985
!!!CDT:
!!!CNT:
!!!OPR: Requiem Es
!!!OTL: Osanna
!!!OMV: 006
!!!PDT:
!!!AGN: Sacred; Requiem
!!!SMS-siglum: PL-SA
!!!SMS-shelfmark: 197/A VI 1
!!!SMS-shelfwork: 001-006 M
!!!SMS-variant:
!!!SMS-altvar:
!!!NIFC-rismid: 1001070179
!!!URL-scan: https://bc.bdsandomierz.pl/dlibra/publication/1533/edition/1501/content
!!!ONB-nifc: UWAGA: części Requiem: 1. Requiem, 2. Kirie, 3. Dies irae, 4. Domine Jesu Christe, 5. Sanctus, 6. Osanna, 7. Benedictus, 8. Agnus Dei, 9. Lux aeterna
!!!AIN: 1 alto 1 bass 1 soprn
!!!key: E-
**kern	**text	**kern	**text	**kern	**text
*part3	*part3	*part2	*part2	*part1	*part1
*staff3	*staff3	*staff2	*staff2	*staff1	*staff1
*I"Baſſo	*	*I"Alto	*	*I"Canto:.	*
*I'B	*	*I'A	*	*I'S	*
*Ibass	*	*Ialto	*	*Isoprn	*
*ICvox	*	*ICvox	*	*ICvox	*
*clefF4	*	*clefC3	*	*clefC1	*
*k[b-e-a-]	*	*k[b-e-a-]	*	*k[b-e-a-]	*
*E-:	*	*E-:	*	*E-:	*
*M4/4	*	*M4/4	*	*M4/4	*
*met(c)	*	*met(c)	*	*met(C.)	*
*	*	*	*	*all\right	*
=1	=1	=1	=1	=1	=1
!LO:TX:t=P:problem=przy kluczu BB- B- E- A- AA-	!	!LO:TX:t=P:problem=przy kluczu e- B- A-	!	!	!
00r	.	4r	.	00r	.
.	.	8r	.	.	.
.	.	8e-\	O-	.	.
.	.	4e-\	-ſan-	.	.
.	.	8e-\	-na	.	.
.	.	8e-\	o-	.	.
=2	=2	=2	=2	=2	=2
.	.	8f\	-ſan-	.	.
.	.	8f\	-na	.	.
.	.	8f\	in	.	.
.	.	(16e-\LL	ex-	.	.
.	.	16f\JJ)	.	.	.
.	.	8g\	-Cel-	.	.
.	.	8e-\	-sis	.	.
.	.	8r	.	.	.
.	.	8f\	O-	.	.
=3	=3	=3	=3	=3	=3
.	.	16g\LL	-ſan-	.	.
.	.	16f\	.	.	.
.	.	16g\	.	.	.
.	.	16a-\JJ	.	.	.
.	.	16g\LL	.	.	.
.	.	16b-\	.	.	.
.	.	16a-\	.	.	.
.	.	16g\JJ	.	.	.
!	!	!LO:LB:g=original	!	!	!
.	.	16f\LL	.	.	.
.	.	16e-\	.	.	.
.	.	16f\	.	.	.
.	.	16g\JJ	.	.	.
.	.	8f\	-na	.	.
.	.	8f\	O-	.	.
=4	=4	=4	=4	=4	=4
!	!	!LO:TX:t=P:problem=takt nr 4 zapisany repetycją	!	!	!
.	.	16g\LLyy	-ſan-	.	.
.	.	16f\yy	.	.	.
.	.	16g\yy	.	.	.
.	.	16a-\JJyy	.	.	.
.	.	16g\LLyy	.	.	.
.	.	16b-\yy	.	.	.
.	.	16a-\yy	.	.	.
.	.	16g\JJyy	.	.	.
.	.	16f\LLyy	.	.	.
.	.	16e-\yy	.	.	.
.	.	16f\yy	.	.	.
.	.	16g\JJyy	.	.	.
.	.	8f\yy	-na	.	.
.	.	8f\yy	O	.	.
=5	=5	=5	=5	=5	=5
00r	.	8g\	-ſan-	00r	.
.	.	8f\	-na	.	.
.	.	8g\	in	.	.
.	.	16f\LL	ex-	.	.
.	.	16e-\JJ	.	.	.
.	.	8e-\	-Cel-	.	.
.	.	8e-\	-sis	.	.
.	.	4r	.	.	.
=6	=6	=6	=6	=6	=6
.	.	00r	.	.	.
=7	=7	=7	=7	=7	=7
=8	=8	=8	=8	=8	=8
=9	=9	=9	=9	=9	=9
2r	.	.	.	2r	.
4r	.	.	.	4r	.
8r	.	.	.	8r	.
8B-\	O-	.	.	8b-\	o-
!	!	!	!	!LO:LB:g=original	!
=10	=10	=10	=10	=10	=10
!	!	!	!	!LO:SIC:v:s=4b-\	!
4B-\	-ſan-	00r	.	4bn\	-ſan-
!	!	!	!	!LO:SIC:v:s=8b-,<\	!
8B-\	-na	.	.	8b,<\	-na
!	!	!	!	!LO:SIC:v:s=8b-\	!
8B-\	o-	.	.	8b\	o-
8B-\	-san-	.	.	8cc\	-ſan-
8B-\	-na	.	.	8cc\	-na
8An\	in	.	.	8cc\	In
!	!	!	!	!LO:SIC:v:s=(16b-\LL	!
16G\LL	ex-	.	.	(16b\LL	ex-
16A\JJ	.	.	.	16cc\JJ)	.
=11	=11	=11	=11	=11	=11
8B-\	-Cel-	.	.	8dd\	-cel-
8B-\	-sis	.	.	8b-\	-sis
8r	.	.	.	8r	.
8An\	O-	.	.	8cc\	O-
16B-\LL	-ſan-	.	.	16dd\LL	-san-
16A\	.	.	.	16cc\	.
16B-\	.	.	.	16dd\	.
16c\JJ	.	.	.	16ee-\JJ	.
16B-\LL	.	.	.	16dd\LL	.
16d\	.	.	.	16ff\	.
16c\	.	.	.	16ee-\	.
16B-\JJ	.	.	.	16dd\JJ	.
=12	=12	=12	=12	=12	=12
16An\LL	.	.	.	16cc\LL	.
16G\	.	.	.	16b-\	.
16A\	.	.	.	16cc\	.
16B-\JJ	.	.	.	16dd\JJ	.
!LO:LB:g=original	!	!	!	!	!
8An\	.	.	.	8cc,<\	-na
8F\	-na	.	.	8dd\	o-
16G\LL	O-	.	.	16ee-\LL	-ſan-
16F\	.	.	.	16dd\	.
16G\	-ſan-	.	.	16ee-\	.
16A\JJ	.	.	.	16ff\JJ	.
16G\LL	.	.	.	16ee-\LL	.
16B-\	.	.	.	16gg\	.
16A\	.	.	.	16ff\	.
16G\JJ	.	.	.	16ee-\JJ	.
=13	=13	=13	=13	=13	=13
16F\LL	.	.	.	16dd\LL	.
16E-\	.	.	.	16cc\	.
16F\	.	.	.	16dd\	.
16G\JJ	.	.	.	16ee-\JJ	.
!	!	!	!	!LO:LB:g=original	!
8F\	-na	.	.	8dd\	-na
8B-\	O-	.	.	8dd\	o-
8G\	-ſan-	.	.	8ee-\	-ſan-
8A-\	-na	.	.	(16ff\LL	-na
.	.	.	.	16cc\JJ)	.
8B-\	in	.	.	8.dd\	In
8BB-/	ex-	.	.	.	.
.	.	.	.	16dd\	ex-
=14	=14	=14	=14	=14	=14
8E-\	-Cel-	4r	.	8ee-\	-cel-
8E-\	-sis	.	.	8ee-\	-sis
8r	.	8r	.	8r	.
8E-\	O-	8e-\	O-	8b-\	o-
(8C/L	-ſan-	4e-\	-san-	4cc\	-ſan-
8D/J)	.	.	.	.	.
8E-\	-na	8e-\	-na	8cc,<\	-na
8c\	O-	8e-\	o-	8cc\	o-
=15	=15	=15	=15	=15	=15
8A-\	-ſan-	8f\	-ſan-	8cc\	-ſan-
8F\	-na	8f\	-na	8cc\	-na
8B-\	in	8f\	in	8dd\	In
8BB-/	ex-	16e-\LL	ex-	8b-\	ex-
.	.	16f\JJ	.	.	.
(8E-\L	-Cel-	4g\	-Cel-	4b-\	-cel-
8F\J)	.	.	.	.	.
8G\	-sis	8g\	-sis	8b-,<\	-sis
8E-\	O-	8b-\	O-	8ee-\	O-
!LO:LB:g=original	!	!	!	!	!
=16	=16	=16	=16	=16	=16
8c\L	-ſan-	8b-\L	-ſan-	8ee-\	-san-
8A-\	.	16a-\L	.	8ee-\	-na
.	.	16g\JJ	.	.	.
8F\	.	8a-\	-na	8ee-\	In
8A-\J	.	8a-\	O-	(16ff\LL	ex-
.	.	.	.	16ee-\JJ)	.
!	!	!LO:LB:g=original	!	!	!
8B-\L	.	8a-\L	-ſan-	4dd\	-cel-
8G\J	.	16g\L	.	.	.
.	.	16f\JJ	.	.	.
8E-\	-na	8g\	-na	8ee-\	-sis
8G\	O-	8g\	O-	8ee-\	O-
!	!	!	!	!LO:LB:g=original	!
=17	=17	=17	=17	=17	=17
(8A-\L	-ſan-	8g\	-ſan-	8cc\	-ſan-
8F\J)	.	16f\LL	-na	8cc\	-na
.	.	16e-\JJ	.	.	.
8D/	-na	8e-\	in	8cc\	In
8F\	O-	8a-\	ex-	(16dd\LL	ex-
.	.	.	.	16cc\JJ)	.
8G\	-ſan-	8g\	-cel-	8bn\	-cel-
8GG/	-na	8g\	-sis	8b\	-sis
8r	.	8r	.	8r	.
8G\	O-	8g\	O-	8dd\	o-
=18	=18	=18	=18	=18	=18
8A-\L	-ſan-	8g\L	-ſan-	8cc\L	-ſan-
8F\	.	16f\L	.	16dd\L	.
.	.	16g\JJ	.	16ee-\JJ	.
8D\	.	8a-\	-na	8ff,<\	-na
8F\J	.	8f\	O-	8cc\	o-
!	!	!	!	!LO:SIC:v:s=8b-\L	!
(8G\L	.	8f\L	-ſan-	8b\L	-ſan-
8E-\J)	.	16e-\L	.	16cc\L	.
.	.	16f\JJ	.	16dd\JJ	.
8C/	-na	8g\	-na	8ee-,<\	-na
!	!	!	!	!LO:SIC:v:s=8b-\	!
8E-\	O-	8e-\	o-	8b\	o-
=19	=19	=19	=19	=19	=19
(8F\L	-ſan-	8e-\L	-ſan-	8a-\L	-ſan-
8D\J)	.	16d\L	.	16b-\L	.
.	.	16e-\JJ	.	16cc\JJ	.
8BB-/	-na	8f\	-n[a]	8dd,<\	-na
8D/	O-	8f\	O-	8b-\	o-
8E-\	-ſan-	8g\	-ſan-	(16g\LL	-ſan-
.	.	.	.	16a-\JJ)	.
8C/	-na	8g\	-na	(16b-\LL	-na
.	.	.	.	16cc\JJ)	.
8F\	in	8f\	in	8dd\	in
8FF/	ex-	8f\	ex-	(16cc\LL	ex-
.	.	.	.	16b-\JJ)	.
!LO:PB:g=original	!	!LO:LB:g=original	!	!LO:LB:g=original	!
=20	=20	=20	=20	=20	=20
!	!	!	!	!LO:N:vis=8	!
(8BB-/L	-Cel-	4f\	-Cel-	4b-\	-Cel-
8C/J)	.	.	.	.	.
8D/	-sis	8f\	-sis	8b-,<\	-sis
8E-\	O-	8g\	o-	8ee-\	o-
(8F\L	-ſan-	16a-\LL	-ſan-	8ee-\L	-ſan-
.	.	16b-\	.	.	.
8A-\J)	.	16a-\	.	16dd\L	.
.	.	16b-\JJ	.	16cc\JJ	.
!LO:TX:t=P:problem=mixed beam	!	!	!	!	!
(8B-\L	-na	16a-\LL	.	8dd,<\	-na
.	.	16b-\	.	.	.
8BB-/J)	.	16a-\	.	8dd\	o-
.	.	16b-\JJ	.	.	.
=21	=21	=21	=21	=21	=21
(8E-\L	.	16g\LL	.	8dd\L	-ſan-
.	.	16a-\	.	.	.
8G\J)	.	16g\	.	16cc\L	.
.	.	16a-\JJ	.	16b-\JJ	.
8A-\	na	16g\LL	.	8cc,<\	-na
.	.	16a-\	.	.	.
8AA-/	O-	16g\	.	8cc\	o-
.	.	16a-\JJ	.	.	.
!LO:TX:t=P:problem=mixed beam	!	!	!	!	!
8D\L	-ſan-	16f\LL	.	8cc\L	-ſan-
.	.	16g\	.	.	.
8F\	.	16f\	.	16b-\L	.
.	.	16g\JJ	.	16a-\JJ	.
8G\	.	16f\LL	.	8b-,<\	-na
.	.	16g\	.	.	.
8GG/J	.	16f\	.	8b-\	o-
.	.	16g\JJ	.	.	.
=22	=22	=22	=22	=22	=22
8C/L	.	16e-\LL	.	8b-\L	-ſan-
.	.	16f\	.	.	.
8E-/J	.	16e-\	.	16a-\L	.
.	.	16f\JJ	.	16g\JJ	.
8F\	-na	16e-\LL	.	8f,</	-na
.	.	16f\	.	.	.
8FF/	O-	16e-\	.	8a-\	o-
.	.	16f\JJ	.	.	.
(8BB-/L	-ſan-	8d\L	.	8a-\L	-ſan-
8D/J)	.	16e-\L	.	(16g\L	.
.	.	16f\JJ	.	16f\JJ)	.
8E-\	-na	8e-\	-na	8g,</	-na
8G\	O-	8e-\	O-	8b-\	o-
!	!	!LO:LB:g=original	!	!	!
=23	=23	=23	=23	=23	=23
8c\	-ſan-	8e-\	-ſan-	8cc\	-ſan-
8A-\	-na	16a-\LL	-na	8cc\	-na
.	.	16g\JJ	.	.	.
!	!	!	!	!LO:LB:g=original	!
8B-\	in	8f\	in	8b-\	In
8BB-/	ex-	8f\	ex-	8b-\	ex-
4E-\	-Cel-	4g\	-Cel-	4b-\	-cel-
8E-\	-sis	8g\	-sis	8b-,<\	-sis
8E-\	O-	8g\	o-	8b-\	o-
!LO:LB:g=original	!	!	!	!	!
=24	=24	=24	=24	=24	=24
8D\	-ſan-	8f\	-ſan-	8b-\	-ſan-
8E-\	-na	8g\	-na	8ee-\	-na
8AA-/	in	8f\	in	8ee-\	In
8BB-/	ex-	8f\	ex-	8dd\	ex-
8E-\	-Cel-	8g\	-Cel-	8ee-\	-cel-
8E-\	-sis	8g\	-sis	8ee-\	-sis
4r	.	4r	.	4r	.
==	==	==	==	==	==
*-	*-	*-	*-	*-	*-
!!!system-decoration: [(*)]
!!!RDF**kern: < = below
!!!ENC: Andrzej Borzym
!!!END: 2020-12-27
!!!ENC: Andrzej Kubiczek
!!!END: 2022-03-30
